!!!!SEGMENT: pl-gd--ee-2628--006-009_stabile-annibale--il-terzo-libro-de-madrigali-a-cinque-voci-come-oue-e-sol.krn
!!!cenid: 15xx:1076
!!!COM: Stabile, Annibale
!!!COM-rismID: pe30009662
!!!CDT: ~1535-1595/04
!!!CNT: Italian
!!!GTL: Il terzo libro de madrigali a cinque voci
!!!OTL: Come oue è Sol
!!!OMV: 009
!!!PDT: 1585
!!!AGN:
!!!SMS-siglum: PL-GD
!!!SMS-shelfmark: Ee 2628
!!!SMS-shelfwork: 006-009 G
!!!SMS-variant:
!!!SMS-altvar:
!!!NIFC-rismSourceID: 990060530
!!!NIFC-islandoraID: pl-gd:66139
!!!URL-pdf-islandora: https://repozytorium.nifc.pl/islandora/object/pl-gd%3A66139/datastream/PDF/view
!!!URL-scan: https://polish.musicsources.pl/pl/lokalizacje/galeria/klocki-introligatorskie/673 @EN{Scan on Polish Music Sources Website} @PL{Skany w portalu Dziedzictwo Muzyki Polskiej w otwartym dostępie}
!!!ONB-nifc: UWAGA: Canto: s. 90-101, Tenore: s. 246-257, Basso: s. 402-413, Quinto: s. 724-735. Dla głosu Alto proszę skorzystać z https://pbc.gda.pl/dlibra/publication/87582/edition/79411/content, str. 25-48. Uwaga: utwory podzielone wg spisu treści dostępnych na końcu ksiąg – proszę sprawdzać sąsiednie tytuły. Głos Quinto proszę umieszczać wg ambitusu (może się różnić w zależności od utworu).
!!!AIN: 1 alto 1 bass 1 soprn 1 tenor 1 vox
!!!key: d
**kern	**text	**kern	**text	**kern	**text	**kern	**text	**kern	**text
*part5	*part5	*part4	*part4	*part3	*part3	*part2	*part2	*part1	*part1
*staff5	*staff5	*staff4	*staff4	*staff3	*staff3	*staff2	*staff2	*staff1	*staff1
*I"BASSO	*	*I"TENORE	*	*I"ALTO	*	*I"QVINTO	*	*I"CANTO	*
*I'B	*	*I'T	*	*I'A	*	*I'V	*	*I'S	*
*ICvox	*	*ICvox	*	*ICvox	*	*ICvox	*	*ICvox	*
*Ibass	*	*Itenor	*	*Ialto	*	*Ivox	*	*Isoprn	*
*clefF3	*	*clefC3	*	*clefC2	*	*clefC3	*	*clefG2	*
*k[b-]	*	*k[b-]	*	*k[b-]	*	*k[b-]	*	*k[b-]	*
*d:	*	*d:	*	*d:	*	*d:	*	*d:	*
*M2/1	*	*M2/1	*	*M2/1	*	*M2/1	*	*M2/1	*
*met(C)	*	*met(C)	*	*met(C)	*	*met(C)	*	*met(C)	*
=1-	=1-	=1-	=1-	=1-	=1-	=1-	=1-	=1-	=1-
!LO:TX:t=P:problem:podwójnie zapisany znak przykluczowy: BB- B-	!	!	!	!LO:TX:t=P:problem:podwójnie zapisany znak przykluczowy: B- b-	!	!	!	!	!
!	!	!LO:TX:a:t=Seconda parte	!	!	!	!LO:TX:a:t=Seconda parte	!	!LO:TX:a:t=Seconda parte	!
1d	CO-	1f#X	CO-	1a	CO-	00r	.	1dd	CO-
2.c\	-me	2.g\	-me	2.cc\	-me	.	.	2.ee\	-me ou-
4A\	oue è	4f#\	oue è	4cc\	oue è	.	.	4aa\	-e è
=2-	=2-	=2-	=2-	=2-	=2-	=2-	=2-	=2-	=2-
2c\	ſol	2e\	ſol	2cc\	ſol	.	.	2gg\	ſol
4F/	fug-	4a\	fug-	4cc\	fug-	.	.	4ff\	fug-
8F/	-ge	8a\	-ge	8cc\	-ge	.	.	8ff\	-ge
8F/	la	8a\	la	8cc\	la	.	.	8ff\	la
4F/	no-	4a\	no-	4cc\	no-	.	.	4ff\	ne-
4G\	-tte e	4g\	-tte e	4b-\	-tte e	.	.	4dd\	-ue e
2A\	l`om-	2e\	l`om-	2a\	l`om-	.	.	2cc#X\	lom-
*custos:A	*	*	*	*	*	*	*	*custos:cc#	*
!LO:LB:g=original	!	!	!	!	!	!	!	!LO:LB:g=original	!
=3-	=3-	=3-	=3-	=3-	=3-	=3-	=3-	=3-	=3-
2A\	-bra	2e\	-bra	2a\	-bra	2r	.	2cc#X\	-bra
*	*	*custos:f	*	*	*	*	*	*	*
!	!	!LO:LB:g=original	!	!	!	!	!	!	!
2r	.	4fny\	fug-	4a\	fug-	1d	CO-	2r	.
.	.	8f\	-ge	8a\	-ge	.	.	.	.
.	.	8f\	la	8a\	la	.	.	.	.
*	*	*	*	*custos:a	*	*	*	*	*
!	!	!	!	!LO:LB:g=original	!	!	!	!	!
2r	.	4f\	not-	4a\	not-	.	.	1r	.
.	.	4g\	-te e	4b-\	-te e	.	.	.	.
4F/	fug-	1a\	l`om-	2cc\	l`om-	2.c/	-me ou-	.	.
8F/	-ge	.	.	.	.	.	.	.	.
8F/	la	.	.	.	.	.	.	.	.
=4-	=4-	=4-	=4-	=4-	=4-	=4-	=4-	=4-	=4-
4F/	not-	.	.	2f\	-bra	.	.	0r	.
4F/	-te e	.	.	.	.	4A/	-e è	.	.
2E/	l`om-	2g\	-bra	2r	.	2c/	ſol	.	.
*	*	*	*ij	*	*ij	*	*	*	*
0D	-bra	4f\	fug-	4a\	fug-	4F/	fug-	.	.
.	.	8f\	-ge	8a\	-ge la	8F/	-ge	.	.
.	.	8f\	la	8a\	not-	8F/	la	.	.
.	.	4f\	not-	4a\	-te e	4F/	ne-	.	.
.	.	4e\	-te e	4g\	l`om-	4G/	-ue e	.	.
=5-	=5-	=5-	=5-	=5-	=5-	=5-	=5-	=5-	=5-
.	.	1d	l`om-	1f#X	-bra	2A/	l`om-	4dd\	fug-
.	.	.	.	.	.	.	.	8dd\	-ge
.	.	.	.	.	.	.	.	8dd\	la
*	*	*	*	*	*Xij	*custos:A	*	*	*
!	!	!	!	!	!	!LO:LB:g=original	!	!	!
.	.	.	.	.	.	2A/	-bra	4dd\	not-
.	.	.	.	.	.	.	.	4ccny\	-te e
!LO:TX:t=P:problem: VHV nie wyświetla pauzy	!	!	!	!	!	!	!	!LO:N:acc=#	!
1r	.	2G/	-bra	1g	Co-	1r	.	2bn/	l`om-
*	*	*custos:G	*Xij	*	*	*	*	*	*
!	!	!LO:LB:g=original	!	!	!	!	!	!	!
.	.	1G/	Co-	.	.	.	.	2b/	-bra
=6-	=6-	=6-	=6-	=6-	=6-	=6-	=6-	=6-	=6-
1C	Co-	.	.	1g	-ſi	1e	Co-	2r	.
.	.	1c	-ſi	.	.	.	.	1cc	Co-
1F	-ſi	.	.	1a	da	4f\	-ſi	.	.
.	.	.	.	.	.	8e\	.	.	.
.	.	.	.	.	.	8d\	.	.	.
.	.	1A/	da	.	.	2c/	.	2ff\	-ſi
*custos:D	*	*	*	*	*	*	*	*custos:ff	*
!LO:LB:g=original	!	!	!	!	!	!	!	!LO:LB:g=original	!
=7-	=7-	=7-	=7-	=7-	=7-	=7-	=7-	=7-	=7-
2D/	da	.	.	2a\	tuoi	2d\	da	2ff\	da
2D/	tuoi	2d\	tuoi	2a\	ſan-	2f\	tuoi	2dd\	tuoi
*	*	*	*	*custos:a	*	*	*	*	*
!	!	!	!	!LO:LB:g=original	!	!	!	!	!
2A\	ſan-	2c#X/	ſan-	2a\	-ti	2e\	ſan-	2ee\	ſan-
4A\	-ti	4c#/	-ti	4a\	pen-	4e\	-ti	4ee\	-ti
4A\	pen-	4c#/	pen-	4a\	-ſie-	2A/	pen-	4ee\	pen-
=8-	=8-	=8-	=8-	=8-	=8-	=8-	=8-	=8-	=8-
2D/	-ſie-	2d\	-ſie-	2a\	-ri	.	.	2ff\	-ſie-
.	.	.	.	.	.	2d\	-ſie-	.	.
!	!	!LO:N:acc=#	!	!	!	!	!	!	!
2G\	-ri e	2Bn/	-ri e	2g\	e	.	.	2dd\	-ri e
.	.	.	.	.	.	4G/	-ri e	.	.
*	*	*	*	*	*	*custos:G	*	*	*
!	!	!	!	!	!	!LO:LB:g=original	!	!	!
1C	caſ-	1cny	caſ-	1g	caſ-	2G/	caſ-	1ee-X	caſ-
.	.	.	.	.	.	2G/	-ti	.	.
=9-	=9-	=9-	=9-	=9-	=9-	=9-	=9-	=9-	=9-
!	!	!LO:N:acc=#	!	!	!	!	!	!	!
2G\	-ti	2Bn/	-ti	2g\	-ti	4r	.	2dd\	-ti
.	.	.	.	.	.	4g\	Vn`-	.	.
2r	.	4r	.	2r	.	4f\	-al-	2r	.
.	.	2c/	V n`	.	.	4e\	-tro	.	.
1r	.	.	.	2r	.	2g\	-ſol	4r	.
.	.	4B/	al-	.	.	.	.	4gg\	Vn`-
.	.	4A/	-tro	4r	.	2r	.	4ff\	-al-
.	.	4c/	-ſol	2cc\	Vn`-	.	.	4eeny\	-tro
=10-	=10-	=10-	=10-	=10-	=10-	=10-	=10-	=10-	=10-
2r	.	4r	.	.	.	1r	.	2gg\	-ſol
*	*	*	*ij	*	*	*	*	*	*
.	.	4g\	Vn`-	4b-\	-al-	.	.	.	.
4r	.	4f\	-al-	4a\	-tro	.	.	2r	.
2c\	Vn`	4e\	-tro	4cc\	-ſol	.	.	.	.
*	*	*custos:g	*	*	*ij	*	*ij	*	*ij
!	!	!LO:LB:g=original	!	!	!	!	!	!	!
.	.	2g\	-ſol	1r	.	4r	.	4r	.
2B-\	al-	.	.	.	.	4g\	Vn`-	2dd\	Vn`-
.	.	2r	.	.	.	2.f\	-al-	.	.
4A\	-tro	.	.	.	.	.	.	2cc\	-al-
=11-	=11-	=11-	=11-	=11-	=11-	=11-	=11-	=11-	=11-
1c	-ſol	1r	.	2g\	Vn`-	.	-tro	.	-tro
.	.	.	.	.	.	4e\	.	4cc\	.
.	.	.	.	4e/	-al-	2g\	-ſol	2cc\	-ſol
.	.	.	.	4c/	-tro	.	.	.	.
*	*	*	*Xij	*	*	*	*Xij	*custos:dd	*Xij
!	!	!	!	!	!	!	!	!LO:LB:g=original	!
2r	.	2r	.	2g\	-ſol	1r	.	0r	.
*	*	*	*	*	*Xij	*	*	*	*
2B-\	l`o	2d\	l`o-	2fny\	l`o-	.	.	.	.
*	*	*	*	*custos:a	*	*	*	*	*
!	!	!	!	!LO:LB:g=original	!	!	!	!	!
=12-	=12-	=12-	=12-	=12-	=12-	=12-	=12-	=12-	=12-
*col	*	*col	*	*col	*	*	*	*	*
3%2F	-ſcu-	3%2c	-ſcu-	3%2a	-ſcu-	2r	.	.	.
.	.	.	.	.	.	2d\	l`oſ-	.	.
3D/	-ro	3B-y/	-ro	3f\	-ro	.	.	.	.
*	*	*	*	*	*	*col	*	*	*
3%2F	tuo	3%2A	tuo	3%2f	tuo	3%2c	-ou-	2r	.
.	.	.	.	.	.	.	.	2dd\	l`oſ-
3BB-/	diſ-	3f\	diſ-	3d/	diſ-	3B-/	-ro	.	.
=13-	=13-	=13-	=13-	=13-	=13-	=13-	=13-	=13-	=13-
*Xcol	*	*Xcol	*	*	*	*	*	*col	*
1F	-gom-	1f	-gom-	3%2a	-om-	3%2A	tuo	3%2cc	-ou-
.	.	.	.	3b-\	-bra	3d\	di-	3b-/	-ro
*	*	*	*	*	*	*Xcol	*	*	*
*	*	*	*	*	*	*custos:c	*	*	*
!	!	!	!	!	!	!LO:LB:g=original	!	!	!
1F	-bra	1f	-bra	3%2cc	tuo	1c	-ſgom-	3%2a	tuo
.	.	.	.	3f\	diſ-	.	.	3a/	di-
*	*	*	*	*Xcol	*	*	*	*Xcol	*
=14-	=14-	=14-	=14-	=14-	=14-	=14-	=14-	=14-	=14-
1r	.	1r	.	2e/	-gom-	1c	-bra	2.g/	-ſgom-
.	.	.	.	2e/	-bra	.	.	.	.
.	.	.	.	.	.	.	.	4a/	.
2G\	Di-	4r	.	1r	.	1r	.	2b-/	.
.	.	4d\	Di-	.	.	.	.	.	.
4d\	-ſnor	4d\	-ſnor	.	.	.	.	2a/	-bra
4c\	ſa-	4e\	ſa-	.	.	.	.	.	.
=15-	=15-	=15-	=15-	=15-	=15-	=15-	=15-	=15-	=15-
2B-\	-reb-	4f\	-reb-	2d/	Di-	00r	.	1r	.
.	.	2g\	-be a	.	.	.	.	.	.
2A\	-be a	.	.	4a\	-ſnor	.	.	.	.
.	.	4f\	chi	4cc\	ſa-	.	.	.	.
2.G\	chi	4g\	ſa-	4.b-\	-reb-	.	.	2g/	Di-
.	.	4.d\	-li-	.	.	.	.	.	.
.	.	.	.	8b-\	-be a	.	.	.	.
.	.	.	.	4b-\	chi	.	.	4dd\	-ſnor
.	.	8e\	-re	.	.	.	.	.	.
4A\	ſa-	4f\	ſpe-	4a\	ſa-	.	.	4cc\	ſa-
*	*	*custos:d	*	*	*	*	*	*	*
!	!	!LO:LB:g=original	!	!	!	!	!	!	!
=16-	=16-	=16-	=16-	=16-	=16-	=16-	=16-	=16-	=16-
4B-\	-li-	1.d	-ra	2g\	-li-	.	.	2b-/	-reb-
4c\	-re	.	.	.	.	.	.	.	.
2d\	ſpe-	.	.	2f\	-re	.	.	2a/	-be a
*	*	*	*	*custos:b-	*	*	*	*	*
!	!	!	!	!LO:LB:g=original	!	!	!	!	!
4G\	-ra	.	.	2.b-\	ſpe-	.	.	2.g/	chi
4.G\	ſcen-	.	.	.	.	.	.	.	.
.	.	4r	.	.	.	.	.	.	.
8G\	-de-	.	.	.	.	.	.	.	.
4F/	-re a	4.d\	ſcen-	4a\	-ra	.	.	4a/	ſa-
*custos:E-	*	*	*	*	*	*	*	*	*
!LO:LB:g=original	!	!	!	!	!	!	!	!	!
=17-	=17-	=17-	=17-	=17-	=17-	=17-	=17-	=17-	=17-
2E-X/	baſ-	.	.	4r	.	2G/	Di-	4b-/	-li-
.	.	8d\	-de-	.	.	.	.	.	.
.	.	4c/	-re a	4.g\	ſcen-	.	.	4cc\	-re
2D/	-ſo	4B-/	baſ-	.	.	2d\	-ſnor	2dd\	ſpe-
.	.	.	.	8g\	-de-	.	.	.	.
.	.	4A/	-ſo	4f\	-re a	.	.	.	.
1r	.	2r	.	2e/	baſ-	2c/	ſa-	4g/	-ra
.	.	.	.	.	.	.	.	4.g/	ſcen-
.	.	4r	.	2d/	-ſo	4.B-/	-reb-	.	.
.	.	.	.	.	.	.	.	8g/	-de-
*	*	*	*ij	*	*	*	*	*	*
.	.	4.d\	ſcen-	.	.	.	.	4f/	-re a
.	.	.	.	.	.	8A/	-be a	.	.
=18-	=18-	=18-	=18-	=18-	=18-	=18-	=18-	=18-	=18-
0r	.	.	.	2r	.	4G/	chi	2e/	baſ-
.	.	8d\	-de-	.	.	.	.	.	.
.	.	4c\	-re a	.	.	4A/	ſa-	.	.
.	.	4d\	baſ-	4r	.	4.B-/	-li-	4d/	-ſo
*	*	*	*	*	*ij	*	*	*	*ij
.	.	4G/	-ſo	4.b-\	ſcen-	.	.	4.dd\	ſcen-
.	.	.	.	.	.	8c/	-re	.	.
.	.	2r	.	.	.	2d\	ſpe-	.	.
.	.	.	.	8b-\	-de-	.	.	8dd\	-de-
.	.	.	.	4a\	-re a	.	.	4cc\	-re a
.	.	4r	.	2g\	baſ-	2G/	-ra	2b-/	baſ-
.	.	4.g\	ſcen-	.	.	.	.	.	.
=19-	=19-	=19-	=19-	=19-	=19-	=19-	=19-	=19-	=19-
2D/	et	.	.	2d/	-ſo	4r	.	1a	-ſo
.	.	8g\	de-	.	.	.	.	.	.
.	.	4f\	-re a	.	.	4.d\	ſcen-	.	.
4A\	ſe	2e\	baſ-	2r	.	.	.	.	.
.	.	.	.	.	.	8d\	-de-	.	.
4A\	la	.	.	.	.	4c/	-re a	.	.
*	*	*	*	*	*Xij	*	*	*	*
4d\	sũ(m)	4d\	-ſo	4r	.	2B-/	baſ-	1r	.
*	*	*	*Xij	*	*	*	*	*	*
4d\	vo-	4f\	et	4d/	et	.	.	.	.
*	*	*	*	*	*	*custos:A	*	*	*Xij
!	!	!	!	!	!	!LO:LB:g=original	!	!	!
8c\	-la-	4f\	ſe	4a\	ſe	2A/	-ſo	.	.
8B-\	.	.	.	.	.	.	.	.	.
8A\	.	4f\	la	4a\	la	.	.	.	.
8B-\	.	.	.	.	.	.	.	.	.
*	*	*custos:e	*	*	*	*	*	*	*
!	!	!LO:LB:g=original	!	!	!	!	!	!	!
=20-	=20-	=20-	=20-	=20-	=20-	=20-	=20-	=20-	=20-
2c\	.	8e\	sũ(m)	4g\	sũ(m)	1r	.	4r	.
.	.	8d\	.	.	.	.	.	.	.
.	.	8e\	.	4cc\	vo-	.	.	4g/	et
.	.	8f\	.	.	.	.	.	.	.
*	*	*	*	*custos:b-	*	*	*	*	*
!	!	!	!	!LO:LB:g=original	!	!	!	!	!
2G\	-ſti	4.g\	.	8b-\	-la-	.	.	4dd\	ſe
.	.	.	.	8a\	.	.	.	.	.
.	.	.	.	8g\	.	.	.	4dd\	la
.	.	8f\	vo-	8a\	.	.	.	.	.
1r	.	4e-X\	-la-	2b-\	.	4r	.	4gg\	sũ(m)
.	.	4d\	-ſti	.	.	4G/	et	4gg\	vo-
.	.	2r	.	4a\	-ſti	4d\	ſe	8ff\	-la-
.	.	.	.	.	.	.	.	8ee\	.
*	*	*	*	*	*ij	*	*	*	*
.	.	.	.	4a\	et	4d\	la	8dd\	.
.	.	.	.	.	.	.	.	8cc\	.
=21-	=21-	=21-	=21-	=21-	=21-	=21-	=21-	=21-	=21-
1r	.	1r	.	4g\	la	4g\	sũ(m)	8b-\	.
.	.	.	.	.	.	.	.	8cc\	.
.	.	.	.	4b-\	sũ(m)	4g\	vo-	8dd\	.
.	.	.	.	.	.	.	.	8b-\	.
.	.	.	.	4a\	vo-	8f\	-la-	4cc\	.
.	.	.	.	.	.	8e\	.	.	.
.	.	.	.	4dd\	-la-	8d\	.	4.b-/	.
.	.	.	.	.	.	8e\	.	.	.
2r	.	4r	.	2cc\	.	2f\	.	.	.
.	.	.	.	.	.	.	.	8a/	.
.	.	4f\	Oue	.	.	.	.	4a/	.
4r	.	4f\	è	2b-\	-ſti	2B-/	-ſti	2b-/	-ſti
4B-\	Oue	4d\	ſol	.	.	.	.	.	.
*	*	*	*	*	*Xij	*	*	*	*
=22-	=22-	=22-	=22-	=22-	=22-	=22-	=22-	=22-	=22-
4B-\	è	2g\	di	2b-\	Oue	1r	.	4r	.
4G\	ſol	.	.	.	.	.	.	0r	.
*custos:c	*	*	*	*	*	*	*	*	*
!LO:LB:g=original	!	!	!	!	!	!	!	!	!
4c\	di	4r	.	4g\	è	.	.	.	.
2F/	non	4c/	non	4.cc\	ſol	.	.	.	.
.	.	4d\	tor-	.	.	2r	.	.	.
!	!	!	!	!LO:N:acc=#	!	!	!	!	!
.	.	.	.	8bn\	.	.	.	.	.
4G\	tor-	2eny\	-nar	4b\	.	.	.	.	.
2A\	-nar	.	.	4cc\	di	4r	.	.	.
.	.	2f\	doue	4c/	non	4a\	Oue	.	.
*	*	*	*	*custos:d	*	*	*	*	*
!	!	!	!	!LO:LB:g=original	!	!	!	!	!
=23-	=23-	=23-	=23-	=23-	=23-	=23-	=23-	=23-	=23-
4B-\	doue	.	.	2d/	tor-	4f\	è	.	.
4B-\	è	4d\	è	.	.	4g\	ſol	1r	.
2A\	ſe-	2c#X/	ſe-	2e/	-nar	2a\	di	.	.
*	*	*custos:d	*	*	*	*	*	*	*
!	!	!LO:LB:g=original	!	!	!	!	!	!	!
1D	-ra	2d\	-ra	2.a\	doue	2.f\	non	.	.
!	!	!	!	!	!	!	!	!LO:N:vis=2	!
.	.	.	.	.	.	.	.	4r	.
.	.	2d\	Oue	.	.	.	.	2ff\	Oue
.	.	.	.	4g\	è	4g\	tor	.	.
*	*	*	*	*	*	*custos:a	*	*	*
!	!	!	!	!	!	!LO:LB:g=original	!	!	!
=24-	=24-	=24-	=24-	=24-	=24-	=24-	=24-	=24-	=24-
0r	.	2d\	è	2f\	ſe-	2a\	nar	2dd\	è
.	.	2G/	ſol	2d/	-ra	4b-\	do-	2gg\	ſol
.	.	.	.	.	.	4b-\	-ue è	.	.
.	.	2d\	di	2r	.	2a\	ſe-	2ff\	di
.	.	4B-/	non	4r	.	2g\	-ra	4dd\	non
.	.	4cny/	tor	4g\	Oue	.	.	4ee-X\	tor
*	*	*	*	*	*	*	*	*custos:dd	*
!	!	!	!	!	!	!	!	!LO:LB:g=original	!
=25-	=25-	=25-	=25-	=25-	=25-	=25-	=25-	=25-	=25-
1r	.	2d\	nar	4b-y\	-e è	4r	.	2dd\	nar
.	.	.	.	4a\	ſol	4f\	Ou-	.	.
.	.	4e-X\	do-	2g\	di	4g\	-e è	4b-/	non
.	.	4e-\	-ue è	.	.	4g\	ſol	4cc\	tor-
4r	.	2.d\	ſe-	2f\	non	4a\	di	2dd\	-nar
2BB-/	non	.	.	.	.	2f\	non	.	.
.	.	.	.	4g\	tor-	.	.	2r	.
4C/	tor-	8c/	.	2a\	-nar	4e\	tor-	.	.
.	.	8B-/	.	.	.	.	.	.	.
=26-	=26-	=26-	=26-	=26-	=26-	=26-	=26-	=26-	=26-
2D/	-nar	4A/	.	.	.	2f\	-nar	4r	.
.	.	4B-/	.	4f\	dou-	.	.	2b-/	non
4E-X/	do-	2G/	.	2g\	-e è	2r	.	.	.
4E-/	-ue è	.	.	.	.	.	.	4cc\	tor-
0.D	ſe-	2A/	-ra	1f	ſe-	4r	.	2dd\	-nar
.	.	.	.	.	.	2F/	non	.	.
.	.	2D/	non	.	.	.	.	4b-/	do-
.	.	.	.	.	.	4G/	tor-	4b-/	-ue è
=27-	=27-	=27-	=27-	=27-	=27-	=27-	=27-	=27-	=27-
!	!	!	!	!LO:N:vis=00	!	!	!	!	!
.	.	2F/	tor-	00.d	-ra.	2A/	-nar	2a/	ſe-
.	.	2G/	-nar	.	.	4B-/	dou-	2.g/	.
.	.	.	.	.	.	4B-/	-e è	.	.
*	*	*custos:A	*	*	*	*	*	*	*
!	!	!LO:LB:g=original	!	!	!	!	!	!	!
.	.	4A/	dou-	.	.	1A	ſe-	.	.
.	.	4D/	-e è	.	.	.	.	8f#X/	.
.	.	.	.	.	.	.	.	8e/	.
.	.	2d\	ſe-	.	.	.	.	2f#X/	.
=28-	=28-	=28-	=28-	=28-	=28-	=28-	=28-	=28-	=28-
!	!	!LO:N:acc=#	!	!	!	!	!	!	!
00G	-ra	00Bn	-ra.	.	.	00G	-ra.	00g	-ra.
==	==	==	==	==	==	==	==	==	==
*-	*-	*-	*-	*-	*-	*-	*-	*-	*-
!!!system-decoration: [(s1,s2,s3,s4,s5)]
!!!ENC: Filip Voros
!!!END: 2022-07-10
!!!ENC: Natalia Wrzos
!!!END: 2022-08-02
!!!YEC: Copyright 2022 Narodowy Instytut Fryderyka Chopina (https://polishscores.org)
!!!YEM: Licence CC BY 4.0 (https://creativecommons.org/licenses/by/4.0)
